build/svg/cmd/32/dbqueryedit.svg

<?xml version="1.0" encoding="UTF-8" standalone="no"?>
<svg
   xmlns:dc="http://purl.org/dc/elements/1.1/"
   xmlns:cc="http://creativecommons.org/ns#"
   xmlns:rdf="http://www.w3.org/1999/02/22-rdf-syntax-ns#"
   xmlns:svg="http://www.w3.org/2000/svg"
   xmlns="http://www.w3.org/2000/svg"
   xmlns:xlink="http://www.w3.org/1999/xlink"
   xmlns:sodipodi="http://sodipodi.sourceforge.net/DTD/sodipodi-0.dtd"
   xmlns:inkscape="http://www.inkscape.org/namespaces/inkscape"
   viewBox="0 0 32 32"
   version="1.1"
   id="svg6"
   sodipodi:docname="dbqueryedit.svg"
   inkscape:version="0.92.5 (2060ec1f9f, 2020-04-08)"
   inkscape:export-filename="/home/jupiter007/Libreoffice yaru theme fullcolor/build/cmd/32/dbqueryedit.png"
   inkscape:export-xdpi="95"
   inkscape:export-ydpi="95">
  <metadata
     id="metadata12">
    <rdf:RDF>
      <cc:Work
         rdf:about="">
        <dc:format>image/svg+xml</dc:format>
        <dc:type
           rdf:resource="http://purl.org/dc/dcmitype/StillImage" />
      </cc:Work>
    </rdf:RDF>
  </metadata>
  <defs
     id="defs10">
    <linearGradient
       y2="316.93201"
       x2="702.21381"
       y1="316.93201"
       x1="609.78619"
       gradientUnits="userSpaceOnUse"
       id="linearGradient4400"
       xlink:href="#linearGradient4336-3"
       inkscape:collect="always" />
    <linearGradient
       id="linearGradient4336-3">
      <stop
         id="stop4338-8"
         offset="0"
         style="stop-color:#5884f4;stop-opacity:1" />
      <stop
         style="stop-color:#5884f4;stop-opacity:1"
         offset="0.30756706"
         id="stop4344-3" />
      <stop
         id="stop4346-3"
         offset="0.30756706"
         style="stop-color:#2f5fdd;stop-opacity:1" />
      <stop
         style="stop-color:#2f5fdd;stop-opacity:1"
         offset="0.69206423"
         id="stop4350-1" />
      <stop
         style="stop-color:#234db8;stop-opacity:1"
         offset="0.69206423"
         id="stop4348-6" />
      <stop
         id="stop4340-0"
         offset="1"
         style="stop-color:#234db8;stop-opacity:1" />
    </linearGradient>
  </defs>
  <sodipodi:namedview
     pagecolor="#ffffff"
     bordercolor="#666666"
     borderopacity="1"
     objecttolerance="10"
     gridtolerance="10"
     guidetolerance="10"
     inkscape:pageopacity="0"
     inkscape:pageshadow="2"
     inkscape:window-width="1920"
     inkscape:window-height="1011"
     id="namedview8"
     showgrid="true"
     inkscape:zoom="32"
     inkscape:cx="4.716983"
     inkscape:cy="0.94364893"
     inkscape:window-x="1920"
     inkscape:window-y="32"
     inkscape:window-maximized="1"
     inkscape:current-layer="svg6">
    <inkscape:grid
       type="xygrid"
       id="grid828" />
  </sodipodi:namedview>
  <path
     style="fill:#f2cbf8;fill-opacity:1;stroke-width:0.95833331"
     id="path817"
     d="M 16,4.5 C 9.6487254,4.5 4.5,5.7871814 4.5,7.375 v 5.75 5.75 5.75 c 0,1.587818 5.1487254,2.875 11.5,2.875 6.351275,0 11.5,-1.287182 11.5,-2.875 V 7.375 C 27.5,5.7871814 22.351275,4.5 16,4.5 Z"
     inkscape:connector-curvature="0"
     sodipodi:nodetypes="ssccsssss" />
  <path
     inkscape:connector-curvature="0"
     d="M 16,4 A 12,3 0 0 0 4,7 v 6 6 6 a 12,3 0 0 0 12,3 12,3 0 0 0 12,-3 V 7 A 12,3 0 0 0 16,4 Z m 0,1 A 11,2 0 0 1 27,7 11,2 0 0 1 16,9 11,2 0 0 1 5,7 11,2 0 0 1 16,5 Z M 27,8.1914062 V 13 A 11,2 0 0 1 16,15 11,2 0 0 1 5,13 V 8.1953125 A 12,3 0 0 0 16,10 12,3 0 0 0 27,8.1914062 Z m 0,5.9999998 V 19 A 11,2 0 0 1 16,21 11,2 0 0 1 5,19 V 14.195312 A 12,3 0 0 0 16,16 12,3 0 0 0 27,14.191406 Z m 0,6 V 25 A 11,2 0 0 1 16,27 11,2 0 0 1 5,25 V 20.195312 A 12,3 0 0 0 16,22 12,3 0 0 0 27,20.191406 Z"
     id="path2"
     style="fill:#8e03a3;fill-opacity:1" />
  <g
     style="display:inline;stroke-width:9.7142868;enable-background:new"
     transform="matrix(0.06092831,0.03517698,-0.03815213,0.06608143,-8.6892946,-17.54128)"
     id="g1135">
    <path
       style="fill:#fee1c2;fill-opacity:1;stroke:none;stroke-width:9.7142868"
       d="m 702.21881,319.35584 -46.21878,81.13762 -46.21383,-81.13762 0.44418,-28.63468 h 92.43261 z"
       id="path1129"
       inkscape:connector-curvature="0"
       sodipodi:nodetypes="cccccc" />
    <path
       style="color:#000000;display:inline;overflow:visible;visibility:visible;fill:#5d5d5d;fill-opacity:1;fill-rule:nonzero;stroke:none;stroke-width:11.66852188;marker:none;enable-background:accumulate"
       d="m 641.30138,374.67695 14.69865,25.81651 14.69864,-25.81651 c 0,0 1.12026,-2.76606 -1.73934,-2.76606 -2.85961,0 -5.69434,3.68807 -5.69434,3.68807 0,0 -1.49371,-4.61009 -7.23393,-4.61009 -5.74023,0 -7.23394,4.61009 -7.23394,4.61009 0,0 -2.89678,-3.68807 -5.7824,-3.68807 -2.88562,0 -1.71334,2.76606 -1.71334,2.76606 z"
       id="path1131"
       inkscape:connector-curvature="0"
       sodipodi:nodetypes="ccczczczc" />
    <path
       style="fill:url(#linearGradient4400);fill-opacity:1;stroke:none;stroke-width:9.7142868"
       d="m 609.7862,306.2504 c 0,-7.37615 28.42768,-3.68808 28.42768,7.37614 0,-18.44036 35.53461,-18.44036 35.53461,0 0,-11.06422 28.47032,-14.75229 28.47032,-7.37614 V 67.928881 H 609.7862 Z"
       id="path1133"
       inkscape:connector-curvature="0"
       sodipodi:nodetypes="ccccccc" />
  </g>
</svg>

<svg xmlns="http://www.w3.org/2000/svg" xmlns:xlink="http://www.w3.org/1999/xlink" viewBox="0 0 32 32"><defs><linearGradient y2="316.932" x2="702.214" y1="316.932" x1="609.786" gradientUnits="userSpaceOnUse" id="b" xlink:href="#a"/><linearGradient id="a"><stop offset="0" stop-color="#5884f4"/><stop offset=".308" stop-color="#5884f4"/><stop offset=".308" stop-color="#2f5fdd"/><stop offset=".692" stop-color="#2f5fdd"/><stop offset=".692" stop-color="#234db8"/><stop offset="1" stop-color="#234db8"/></linearGradient></defs><path d="M16 4.5C9.649 4.5 4.5 5.787 4.5 7.375v17.25C4.5 26.213 9.649 27.5 16 27.5s11.5-1.287 11.5-2.875V7.375C27.5 5.787 22.351 4.5 16 4.5z" fill="#f2cbf8"/><path d="M16 4A12 3 0 004 7v18a12 3 0 0012 3 12 3 0 0012-3V7a12 3 0 00-12-3zm0 1a11 2 0 0111 2 11 2 0 01-11 2A11 2 0 015 7a11 2 0 0111-2zm11 3.191V13a11 2 0 01-11 2 11 2 0 01-11-2V8.195A12 3 0 0016 10a12 3 0 0011-1.809zm0 6V19a11 2 0 01-11 2 11 2 0 01-11-2v-4.805A12 3 0 0016 16a12 3 0 0011-1.809zm0 6V25a11 2 0 01-11 2 11 2 0 01-11-2v-4.805A12 3 0 0016 22a12 3 0 0011-1.809z" fill="#8e03a3"/><g stroke-width="9.714"><path d="M21.912 28.264L16 32l.28-6.987 1.12-1.877 5.631 3.252z" fill="#fee1c2"/><path style="marker:none" d="M16.09 29.777L16 32l1.88-1.189s.174-.143 0-.244c-.174-.1-.488.043-.488.043s.085-.357-.264-.559c-.35-.202-.617.05-.617.05s-.036-.345-.212-.447c-.176-.101-.21.123-.21.123z" color="#000" overflow="visible" fill="#5d5d5d"/><path d="M609.786 306.25c0-7.376 28.428-3.688 28.428 7.377 0-18.44 35.534-18.44 35.534 0 0-11.065 28.47-14.753 28.47-7.377V67.93h-92.432z" fill="url(#b)" transform="matrix(.06093 .03518 -.03815 .06608 -8.69 -17.541)"/></g></svg>
